FlatUX/src/svg/Thomson - MOTO.svg

<svg enable-background="new 0 0 256 256" viewBox="0 0 256 256" xmlns="http://www.w3.org/2000/svg"><path d="m228 218h-200c-4.418 0-8-3.582-8-8v-164c0-4.418 3.582-8 8-8h200c4.418 0 8 3.582 8 8v164c0 4.418-3.582 8-8 8z" fill="#bdc1c6"/><path d="m214 200h-127c-2.209 0-4-1.791-4-4v-127c0-2.209 1.791-4 4-4h127c2.209 0 4 1.791 4 4v127c0 2.209-1.791 4-4 4z" fill="#d1d6d2"/><path d="m189 173h-77c-1.105 0-2-.895-2-2v-77c0-1.105.895-2 2-2h77c1.105 0 2 .895 2 2v77c0 1.105-.895 2-2 2z" fill="#93a3a3"/><path d="m178 164h-55c-2.209 0-4-1.791-4-4v-55c0-2.209 1.791-4 4-4h55c2.209 0 4 1.791 4 4v55c0 2.209-1.791 4-4 4z" fill="#7f8b8c"/><circle cx="150.5" cy="132.5" fill="#223140" r="31.5"/><circle cx="51.5" cy="69.5" fill="#223140" r="22.5"/><path d="m51.5 47c12.426 0 22.5 10.074 22.5 22.5s-10.074 22.5-22.5 22.5-22.5-10.074-22.5-22.5 10.074-22.5 22.5-22.5m0-4c-14.612 0-26.5 11.888-26.5 26.5s11.888 26.5 26.5 26.5 26.5-11.888 26.5-26.5-11.888-26.5-26.5-26.5z" fill="#7f8b8c"/><g fill="#dadfe0"><path d="m90.682 192.318 19.318-19.318h81l19.318 19.318c2.835 2.835.827 7.682-3.182 7.682h-113.272c-4.009 0-6.017-4.847-3.182-7.682z"/><path d="m210.318 72.682-19.318 19.318h-81l-19.318-19.318c-2.835-2.835-.827-7.682 3.182-7.682h113.272c4.009 0 6.017 4.847 3.182 7.682z"/></g></svg>

<svg xmlns="http://www.w3.org/2000/svg" viewBox="0 0 256 256"><path fill="#bdc1c6" d="M228 218H28a8 8 0 0 1-8-8V46a8 8 0 0 1 8-8h200a8 8 0 0 1 8 8v164a8 8 0 0 1-8 8"/><path fill="#d1d6d2" d="M214 200H87a4 4 0 0 1-4-4V69a4 4 0 0 1 4-4h127a4 4 0 0 1 4 4v127a4 4 0 0 1-4 4"/><path fill="#93a3a3" d="M189 173h-77a2 2 0 0 1-2-2V94a2 2 0 0 1 2-2h77a2 2 0 0 1 2 2v77a2 2 0 0 1-2 2"/><path fill="#7f8b8c" d="M178 164h-55a4 4 0 0 1-4-4v-55a4 4 0 0 1 4-4h55a4 4 0 0 1 4 4v55a4 4 0 0 1-4 4"/><circle cx="150.5" cy="132.5" r="31.5" fill="#223140"/><circle cx="51.5" cy="69.5" r="22.5" fill="#223140"/><path fill="#7f8b8c" d="M51.5 47C63.926 47 74 57.074 74 69.5S63.926 92 51.5 92 29 81.926 29 69.5 39.074 47 51.5 47m0-4C36.888 43 25 54.888 25 69.5S36.888 96 51.5 96 78 84.112 78 69.5 66.112 43 51.5 43"/><path fill="#dadfe0" d="M90.682 192.318 110 173h81l19.318 19.318c2.835 2.835.827 7.682-3.182 7.682H93.864c-4.009 0-6.017-4.847-3.182-7.682M210.318 72.682 191 92h-81L90.682 72.682C87.847 69.847 89.855 65 93.864 65h113.272c4.009 0 6.017 4.847 3.182 7.682"/></svg>
